!!!COM: Gonzaga, Francisca
!!!CDT: 1847/10/17-1935/02/28
!!!OTL: Tango (Cantado pelo ator Machado na cena cômica 'Carlino desempregado")
**kern	**kern
*part1	*part1
*staff2	*staff1
*I"Piano	*
*clefF4	*clefG2
*k[b-]	*k[b-]
*M2/4	*M2/4
*	*8va
=1	=1
*F:	*
16CCKL	16ccccKL 16eeee
8B- 8c 8e	8bbb- 8dddd
16B-Jk 16c 16e	16gggJk 16bbb-
8EL	8eeeL 8ggg
8B-J 8c 8e	8cccJ 8eee
=	=
16CCKL	16bbb-KL 16dddd
8A 8c 8f	8aaa 8cccc
16AJk 16c 16f	16fffJk 16aaa
8FL	8aaL 8ccc
8AJ 8c	8ffJ 8aa
*	*X8va
=	=
16BB-KL	16bb-KL 16ddd
8B- 8d 8g	8dd
16B-Jk 16d 16g	16bb-Jk 16ddd
8CL	8aaL 8ccc
8B-J 8c 8e	8ggJ 8bb-
=	=
16FFKL	16ffKL 16aa
8A 8c 8f	8aa 8ccc
16AJk 16c 16f	16aaJk 16fff
8AL 8c 8f	8cccL 8aaa
8AJ 8c 8f	8aaJ 8fff
=	=
16CCKL	16cccKL 16eee
8B- 8c 8e	8bb- 8ddd
16B-Jk 16c 16e	16ggJk 16bb-
8EL	8eeL 8gg
8B-J 8c 8e	8ccJ 8ee
=	=
16CCKL	16bb-KL 16ddd
8A 8c 8f	8aa 8ccc
16AJk 16c 16f	16ffJk 16aa
8FL	8aL 8cc
8AJ 8c	8fJ 8a
!!linebreak:original
=	=
8.BBB-L	16b-KL 16dd
.	8d
16BB-Jk 16D 16G	16b-Jk 16dd
8CCL	16ccKL 16ee
.	8e
8EJ 8G 8B- 8c	.
.	16ccJk 16ee
=	=
8FF 8F	8f^: 8a: 8cc: 8ff:
8r	8r
4r	16aKL 16cc
.	8a 8cc
.	16g#XJk 16bn
=||	=||
16CKL	16gKL 16b-
8B- 8c 8e	8ee' 8bb-
16B-Jk 16c 16e	16ee'Jk 16bb-
8EL	(16ccLL 16gg
.	16aa
8B-J 8c 8e	16gg
.	16eeJJ)
=	=
16FKL	16b-LL 16dd
8A 8c 8f	16dd-X
.	16aJJ 16cc
16AJk 16c 16f	16r
4r	16aKL 16cc
.	8a 8cc
.	16g#XJk 16bn
=	=
16CKL	16gKL 16b-
8B- 8c 8e	8ee' 8bb-
16B-Jk 16c 16e	16ee'Jk 16bb-
8EL	(16ccLL 16gg
.	16aa
8B-J 8c 8e	16gg
.	16eeJJ)
=	=
16FFKL	16b-KL 16dd
8A 8c	8a 8cc
16AJk 16c	16fJk
8AL 8c	16fLL
.	16a
8AJ 8c	16a
.	16ccJJ
!!linebreak:original
=	=
16EKL	16b-^KL 16cc
8G 8B- 8c	8b- 8cc
16GJk 16B- 16c	16e'Jk
8EL	16e'LL
.	16g'
8GJ 8B- 8c	16g'
.	16cc'JJ
=	=
16FFKL	16a^KL 16cc
8C 8F 8A	8a 8cc
16CJk 16F 16A	16f'Jk
8CL 8F 8A	16f'LL
.	16a'
8CJ 8F 8A	16a'
.	16cc'JJ
=	=
16BB-KL	16b-KL 16cc
8C 8E 8G	8b- 8cc
16CJk 16E 16G	16eJk
8CL 8E 8G	(16gLL
.	16b-
8BB-J	16cc
.	16eJJ)
=	=
16AAKL	16fKL 16a 16cc
8CJ 8F 8A	8f^J 8a 8cc
16r	16r
4r	(16aKL 16cc
.	8a 8cc
.	16g#XJk) 16bn
=	=
16CKL	16g'KL 16b-
8B- 8c 8e	8ee' 8bb-
16B-Jk 16c 16e	16ee'Jk 16bb-
8EL	(16ccLL 16gg
.	16aa
8B-J 8c 8e	16gg
.	16eeJJ)
=	=
16FKL	16b-KL 16dd
8A 8c 8f	8dd-X
16AJk 16c 16f	16aJk 16cc
8AL 8c 8f	16aKL 16cc
.	8a 8cc
8AJ 8c 8f	.
.	16g#XJk 16bn
!!linebreak:original
=	=
16CKL	16g'KL 16b-
8B- 8c 8e	8ee' 8bb-
16B-Jk 16c 16e	16ee'Jk 16bb-
8EL	(16ccLL 16gg
.	16aa
8B-J 8c 8e	16gg
.	16eeJJ)
=	=
16FFKL	16b-KL 16dd
8C 8F 8A	8a 8cc
16CJk 16F 16A	16cJk
8CL 8F 8A	(16fLL
.	16a
8CJ 8F 8A	16cc
.	16cJJ)
=	=
16BB-KL	16b-KL 16dd
8D 8G	8b- 8dd
16DJk 16G	16B-Jk
8CCL	(16eLL
.	16g
8CJ 8E 8B-	16cc
.	16cJJ)
=	=
16FFKL	16fKL 16a 16cc
8AA 8C 8F	8f 8a 8cc
16AAJk 16C 16F	16AJk
8AAL 8C 8F	(16cLL
.	16f
8AAJ 8C 8F	16a
.	16AJJ)
=	=
4D	(16B-LL
.	16d
.	16b-
.	16B-JJ)
4C	8EL
.	8B-J 8c 8e
=	=
8AA	8F
8r	8r
8FF	8A 8c 8f
8r	8r
!!linebreak:original
=||	=||
*	*8va
16CCKL	16ccccKL 16eeee
8B- 8c 8e	8bbb- 8dddd
16B-Jk 16c 16e	16gggJk 16bbb-
8EL	8eeeL 8ggg
8B-J 8c 8e	8cccJ 8eee
=	=
16CCKL	16bbb-KL 16dddd
8A 8c 8f	8aaa 8cccc
16AJk 16c 16f	16fffJk 16aaa
8FL	8aaL 8ccc
8AJ 8c	8ffJ 8aa
*	*X8va
=	=
16BB-KL	16bb-KL 16ddd
8B- 8d 8g	8dd
16B-Jk 16d 16g	16bb-Jk 16ddd
8CL	8aaL 8ccc
8B-J 8c 8e	8ggJ 8bb-
=	=
16FFKL	16ff'KL 16aa
8A 8c 8f	8aa' 8ccc
16AJk 16c 16f	16aa'Jk 16fff
8AL 8c 8f	8ccc'L 8aaa
8AJ 8c 8f	8aa'J 8fff
=	=
16CCKL	16cccKL 16eee
8B- 8c 8e	8bb- 8ddd
16B-Jk 16c 16e	16ggJk 16bb-
8EL	8eeL 8gg
8B-J 8c 8e	8ccJ 8ee
=	=
16CCKL	16bb-KL 16ddd
8A 8c 8f	8aa 8ccc
16AJk 16c 16f	16ffJk 16aa
8FL	8aL 8cc
8AJ 8c	8fJ 8a
=	=
8.BBB-L	16b-KL 16dd
.	8d
16BB-Jk 16D 16G	16b-Jk 16dd
8CCL	16ccKL 16ee
.	8e
8EJ 8G 8B- 8c	.
.	16ccJk 16ee
!!pagebreak:original
=	=
8FF 8F	8f^: 8a: 8cc: 8ff:
8r	8r
8FF	8ff 8fff
8r	8r
==	==
*-	*-
!!!system-decoration: {(s1,s2)}
!!!AGN: Tango
!!!EED: Florian Moldaschl
!!!END: 2025/12/26
!!!ENC: Florian Moldaschl
!!!EEV: 2025/12/26
!!!title: @{OPR}, @{SCT} №@{ONM}